public/images/partner2.svg

<svg width="151" height="38" viewBox="0 0 151 38" fill="none" xmlns="http://www.w3.org/2000/svg">
<path d="M13.5626 26.7322C20.6796 26.7322 26.449 20.9628 26.449 13.8458C26.449 13.0392 26.3749 12.25 26.2331 11.4844C25.4676 11.3427 24.6783 11.2686 23.8717 11.2686C16.7548 11.2686 10.9854 17.038 10.9854 24.1549C10.9854 24.9615 11.0595 25.7508 11.2012 26.5163C11.9668 26.6581 12.756 26.7322 13.5626 26.7322Z" fill="#175CD3"/>
<path fill-rule="evenodd" clip-rule="evenodd" d="M11.2008 26.5159C5.21158 25.4067 0.675781 20.1557 0.675781 13.8454C0.675781 6.72841 6.44521 0.958984 13.5622 0.958984C19.8725 0.958984 25.1235 5.49478 26.2327 11.484C25.4671 11.3422 24.6778 11.2681 23.8713 11.2681C16.7543 11.2681 10.9849 17.0375 10.9849 24.1545C10.9849 24.961 11.059 25.7503 11.2008 26.5159Z" fill="#1570EF"/>
<path fill-rule="evenodd" clip-rule="evenodd" d="M13.5626 26.7312C20.6795 26.7312 26.4489 20.9617 26.4489 13.8448C26.4489 13.0382 26.3748 12.2489 26.2331 11.4834C32.2222 12.5926 36.758 17.8435 36.758 24.1539C36.758 31.2708 30.9886 37.0403 23.8717 37.0403C17.5613 37.0403 12.3103 32.5045 11.2012 26.5153C11.9667 26.6571 12.756 26.7312 13.5626 26.7312Z" fill="#2E90FA"/>
<path d="M61.5462 23.0216C61.087 24.5064 60.2833 25.6162 59.1353 26.3509C57.9872 27.0704 56.6478 27.4301 55.1171 27.4301C53.617 27.4301 52.3158 27.1163 51.2137 26.4887C50.1269 25.8611 49.2849 24.9656 48.688 23.8022C48.1063 22.6389 47.8154 21.2459 47.8154 19.6233C47.8154 18.0007 48.1139 16.6077 48.7109 15.4444C49.3079 14.281 50.1498 13.3855 51.2366 12.7579C52.3235 12.1303 53.6016 11.8165 55.0712 11.8165C56.6172 11.8165 57.9413 12.1456 59.0434 12.8038C60.1609 13.4467 60.9263 14.4264 61.3396 15.7429L58.4694 16.9598C58.2092 16.0414 57.8112 15.3908 57.2754 15.0081C56.7397 14.6101 56.0508 14.4111 55.2089 14.4111C53.9537 14.4111 52.9511 14.8627 52.201 15.7658C51.4663 16.6537 51.0989 17.9395 51.0989 19.6233C51.0989 21.2918 51.4509 22.5776 52.1551 23.4808C52.8592 24.3839 53.8772 24.8355 55.2089 24.8355C56.0355 24.8355 56.7473 24.6135 57.3443 24.1696C57.9566 23.7257 58.3852 23.0522 58.6301 22.149L61.5462 23.0216Z" fill="white"/>
<path d="M65.5097 14.0667C64.2086 14.0667 63.558 13.508 63.558 12.3905C63.558 11.2578 64.2086 10.6914 65.5097 10.6914C66.8108 10.6914 67.4614 11.2578 67.4614 12.3905C67.4614 13.508 66.8108 14.0667 65.5097 14.0667ZM67.0711 15.7199V27.2005H63.9254V15.7199H67.0711Z" fill="white"/>
<path d="M70.4056 27.2005V15.7199H73.138L73.3447 17.9701C73.6355 17.1894 74.0718 16.5848 74.6534 16.1562C75.2504 15.7122 76.0005 15.4903 76.9036 15.4903C77.4394 15.4903 77.8527 15.5745 78.1435 15.7429L77.7762 18.3834C77.6231 18.3375 77.4317 18.2992 77.2021 18.2686C76.9878 18.2227 76.7046 18.1997 76.3526 18.1997C75.878 18.1997 75.4265 18.3145 74.9979 18.5441C74.5846 18.7584 74.2401 19.0952 73.9646 19.5544C73.6891 19.9983 73.5513 20.5647 73.5513 21.2535V27.2005H70.4056Z" fill="white"/>
<path d="M85.0803 15.4903C86.6111 15.4903 87.7974 15.8194 88.6393 16.4776C89.4965 17.1358 90.0629 17.9318 90.3384 18.8656L87.3994 19.9218C87.0933 18.5288 86.3355 17.8323 85.1262 17.8323C84.2537 17.8323 83.5725 18.1385 83.0827 18.7508C82.6082 19.3631 82.3709 20.2739 82.3709 21.4832C82.3709 22.7078 82.6158 23.6185 83.1057 24.2155C83.6108 24.7972 84.292 25.0881 85.1492 25.0881C86.481 25.0881 87.2769 24.4069 87.5372 23.0445L90.3843 23.963C90.1241 24.9886 89.5424 25.8228 88.6393 26.4657C87.7515 27.1086 86.5958 27.4301 85.1722 27.4301C83.9782 27.4301 82.9296 27.1928 82.0265 26.7183C81.1387 26.2438 80.4498 25.5626 79.96 24.6748C79.4701 23.7869 79.2252 22.7154 79.2252 21.4602C79.2252 20.205 79.4701 19.1335 79.96 18.2456C80.4651 17.3578 81.154 16.6766 82.0265 16.2021C82.9143 15.7276 83.9323 15.4903 85.0803 15.4903Z" fill="white"/>
<path d="M98.0638 15.4903C99.2118 15.4903 100.23 15.7276 101.118 16.2021C102.005 16.6766 102.694 17.3578 103.184 18.2456C103.689 19.1335 103.942 20.205 103.942 21.4602C103.942 22.7154 103.689 23.7869 103.184 24.6748C102.694 25.5626 102.005 26.2438 101.118 26.7183C100.23 27.1928 99.2118 27.4301 98.0638 27.4301C96.9004 27.4301 95.8748 27.1928 94.987 26.7183C94.1145 26.2438 93.4256 25.5626 92.9205 24.6748C92.4306 23.7869 92.1857 22.7154 92.1857 21.4602C92.1857 20.205 92.4306 19.1335 92.9205 18.2456C93.4256 17.3578 94.1145 16.6766 94.987 16.2021C95.8748 15.7276 96.9004 15.4903 98.0638 15.4903ZM98.0638 17.8323C97.2066 17.8323 96.533 18.1385 96.0432 18.7508C95.5687 19.3478 95.3314 20.2509 95.3314 21.4602C95.3314 22.6695 95.5687 23.5803 96.0432 24.1926C96.533 24.7896 97.2066 25.0881 98.0638 25.0881C98.9057 25.0881 99.5639 24.7896 100.038 24.1926C100.528 23.5803 100.773 22.6695 100.773 21.4602C100.773 20.2509 100.528 19.3478 100.038 18.7508C99.5639 18.1385 98.9057 17.8323 98.0638 17.8323Z" fill="white"/>
<path d="M111.809 15.4903C112.957 15.4903 113.975 15.7276 114.863 16.2021C115.751 16.6766 116.44 17.3578 116.929 18.2456C117.435 19.1335 117.687 20.205 117.687 21.4602C117.687 22.7154 117.435 23.7869 116.929 24.6748C116.44 25.5626 115.751 26.2438 114.863 26.7183C113.975 27.1928 112.957 27.4301 111.809 27.4301C110.646 27.4301 109.62 27.1928 108.732 26.7183C107.86 26.2438 107.171 25.5626 106.666 24.6748C106.176 23.7869 105.931 22.7154 105.931 21.4602C105.931 20.205 106.176 19.1335 106.666 18.2456C107.171 17.3578 107.86 16.6766 108.732 16.2021C109.62 15.7276 110.646 15.4903 111.809 15.4903ZM111.809 17.8323C110.952 17.8323 110.278 18.1385 109.789 18.7508C109.314 19.3478 109.077 20.2509 109.077 21.4602C109.077 22.6695 109.314 23.5803 109.789 24.1926C110.278 24.7896 110.952 25.0881 111.809 25.0881C112.651 25.0881 113.309 24.7896 113.784 24.1926C114.274 23.5803 114.519 22.6695 114.519 21.4602C114.519 20.2509 114.274 19.3478 113.784 18.7508C113.309 18.1385 112.651 17.8323 111.809 17.8323Z" fill="white"/>
<path d="M123.419 10.6914V23.6645C123.419 24.2002 123.511 24.5753 123.695 24.7896C123.878 25.0039 124.184 25.111 124.613 25.111C124.873 25.111 125.088 25.0957 125.256 25.0651C125.424 25.0345 125.639 24.9733 125.899 24.8814L125.623 26.9479C125.363 27.101 125.034 27.2158 124.636 27.2923C124.253 27.3842 123.871 27.4301 123.488 27.4301C122.37 27.4301 121.551 27.1622 121.031 26.6265C120.526 26.0754 120.273 25.2029 120.273 24.0089V10.6914H123.419Z" fill="white"/>
<path d="M132.979 27.4301C131.172 27.4301 129.726 26.9096 128.639 25.8687C127.552 24.8125 127.009 23.343 127.009 21.4602C127.009 20.205 127.254 19.1335 127.743 18.2456C128.233 17.3578 128.914 16.6766 129.787 16.2021C130.675 15.7276 131.685 15.4903 132.818 15.4903C133.981 15.4903 134.969 15.7276 135.78 16.2021C136.591 16.6613 137.211 17.2966 137.64 18.1079C138.068 18.9039 138.283 19.8146 138.283 20.8402C138.283 21.1464 138.275 21.4372 138.26 21.7128C138.244 21.9883 138.221 22.2332 138.191 22.4475H130.085C130.208 23.3354 130.514 24.0012 131.004 24.4452C131.509 24.8738 132.16 25.0881 132.956 25.0881C133.629 25.0881 134.173 24.9579 134.586 24.6977C134.999 24.4375 135.321 24.0778 135.55 23.6185L138.053 24.5829C137.686 25.4861 137.043 26.1902 136.124 26.6953C135.206 27.1852 134.157 27.4301 132.979 27.4301ZM132.795 17.8094C131.31 17.8094 130.415 18.6283 130.108 20.2662H135.275C135.183 19.4702 134.923 18.8656 134.494 18.4523C134.081 18.0237 133.514 17.8094 132.795 17.8094Z" fill="white"/>
<path d="M145.541 27.4301C144.377 27.4301 143.313 27.2235 142.349 26.8102C141.4 26.3969 140.627 25.8152 140.03 25.0651L141.844 23.2282C142.211 23.7793 142.701 24.2308 143.313 24.5829C143.926 24.935 144.653 25.111 145.495 25.111C146.092 25.111 146.566 25.0268 146.918 24.8585C147.286 24.6748 147.469 24.3916 147.469 24.0089C147.469 23.764 147.385 23.5573 147.217 23.3889C147.048 23.2052 146.712 23.0598 146.207 22.9527L144.186 22.5394C142.854 22.2638 141.905 21.8505 141.339 21.2995C140.788 20.7331 140.512 20.006 140.512 19.1182C140.512 18.4906 140.696 17.9012 141.063 17.3501C141.446 16.7991 142.012 16.3552 142.762 16.0184C143.512 15.6663 144.446 15.4903 145.564 15.4903C147.89 15.4903 149.559 16.2021 150.569 17.6257L148.686 19.4626C148.35 18.9268 147.906 18.5212 147.355 18.2456C146.819 17.9548 146.252 17.8094 145.655 17.8094C144.308 17.8094 143.635 18.1844 143.635 18.9345C143.635 19.1794 143.742 19.3937 143.956 19.5774C144.171 19.7458 144.561 19.8912 145.127 20.0136L147.469 20.4958C148.602 20.7254 149.413 21.1158 149.903 21.6668C150.393 22.2026 150.638 22.8532 150.638 23.6185C150.638 24.7207 150.194 25.6315 149.306 26.3509C148.434 27.0704 147.179 27.4301 145.541 27.4301Z" fill="white"/>
</svg>

<svg width="151" height="38" fill="none" xmlns="http://www.w3.org/2000/svg"><path d="M13.563 26.732c7.117 0 12.886-5.77 12.886-12.886 0-.807-.074-1.596-.216-2.362a12.965 12.965 0 0 0-2.361-.215c-7.117 0-12.887 5.769-12.887 12.886 0 .806.075 1.596.216 2.361.766.142 1.555.216 2.362.216z" fill="#175CD3"/><path fill-rule="evenodd" clip-rule="evenodd" d="M11.2 26.516C5.213 25.406.677 20.156.677 13.846.676 6.727 6.446.958 13.562.958c6.31 0 11.562 4.536 12.67 10.525a12.958 12.958 0 0 0-2.36-.216c-7.118 0-12.887 5.77-12.887 12.886 0 .807.074 1.596.216 2.362z" fill="#1570EF"/><path fill-rule="evenodd" clip-rule="evenodd" d="M13.563 26.731c7.117 0 12.886-5.77 12.886-12.886 0-.807-.074-1.596-.216-2.362 5.99 1.11 10.525 6.36 10.525 12.67 0 7.118-5.77 12.887-12.886 12.887-6.31 0-11.562-4.535-12.67-10.525.765.142 1.554.216 2.36.216z" fill="#2E90FA"/><path d="M61.546 23.022c-.459 1.484-1.263 2.594-2.41 3.329-1.149.72-2.488 1.08-4.019 1.08-1.5 0-2.801-.315-3.903-.942-1.087-.628-1.93-1.523-2.526-2.687-.582-1.163-.873-2.556-.873-4.179 0-1.622.299-3.015.896-4.179.597-1.163 1.439-2.059 2.526-2.686 1.087-.628 2.365-.941 3.834-.941 1.546 0 2.87.329 3.972.987 1.118.643 1.883 1.622 2.297 2.939l-2.87 1.217c-.26-.919-.659-1.57-1.195-1.952-.535-.398-1.224-.597-2.066-.597-1.255 0-2.258.452-3.008 1.355-.735.888-1.102 2.173-1.102 3.857 0 1.669.352 2.955 1.056 3.858.704.903 1.722 1.354 3.054 1.354.826 0 1.538-.222 2.135-.665.613-.444 1.041-1.118 1.286-2.021l2.916.873zM65.51 14.067c-1.301 0-1.952-.559-1.952-1.677 0-1.132.65-1.699 1.952-1.699 1.3 0 1.951.567 1.951 1.7 0 1.117-.65 1.676-1.951 1.676zm1.561 1.653V27.2h-3.146V15.72h3.146zM70.406 27.2V15.72h2.732l.207 2.25c.29-.78.727-1.385 1.308-1.814.597-.444 1.347-.666 2.25-.666.536 0 .95.085 1.24.253l-.367 2.64a3.781 3.781 0 0 0-.574-.114 4.209 4.209 0 0 0-.85-.07c-.474 0-.925.115-1.354.345-.413.214-.758.551-1.033 1.01-.276.444-.414 1.01-.414 1.7V27.2h-3.145zM85.08 15.49c1.531 0 2.717.33 3.56.988.856.658 1.423 1.454 1.698 2.388L87.4 19.922c-.306-1.393-1.064-2.09-2.273-2.09-.872 0-1.553.306-2.043.919-.475.612-.712 1.523-.712 2.732 0 1.225.245 2.136.735 2.732.505.582 1.186.873 2.043.873 1.332 0 2.128-.681 2.388-2.044l2.847.919c-.26 1.026-.842 1.86-1.745 2.503-.888.643-2.043.964-3.467.964-1.194 0-2.242-.237-3.145-.712a5.015 5.015 0 0 1-2.067-2.043c-.49-.888-.735-1.96-.735-3.215s.245-2.326.735-3.214a5.202 5.202 0 0 1 2.067-2.044c.887-.474 1.905-.712 3.053-.712zM98.064 15.49c1.148 0 2.166.238 3.054.712a5.02 5.02 0 0 1 2.066 2.044c.505.888.758 1.959.758 3.214s-.253 2.327-.758 3.215a5.02 5.02 0 0 1-2.066 2.043c-.888.475-1.906.712-3.054.712-1.164 0-2.19-.237-3.077-.712a5.202 5.202 0 0 1-2.066-2.043c-.49-.888-.735-1.96-.735-3.215s.245-2.326.734-3.214a5.202 5.202 0 0 1 2.067-2.044c.888-.474 1.913-.712 3.077-.712zm0 2.342c-.857 0-1.531.306-2.02.919-.475.597-.713 1.5-.713 2.71 0 1.209.238 2.12.712 2.732.49.597 1.164.895 2.02.895.843 0 1.5-.298 1.975-.895.49-.613.735-1.524.735-2.733 0-1.21-.245-2.112-.735-2.71-.474-.611-1.132-.918-1.974-.918zM111.809 15.49c1.148 0 2.166.238 3.054.712a5.008 5.008 0 0 1 2.066 2.044c.506.888.758 1.959.758 3.214s-.252 2.327-.758 3.215a5.008 5.008 0 0 1-2.066 2.043c-.888.475-1.906.712-3.054.712-1.163 0-2.189-.237-3.077-.712a5.203 5.203 0 0 1-2.066-2.043c-.49-.888-.735-1.96-.735-3.215s.245-2.326.735-3.214a5.203 5.203 0 0 1 2.066-2.044c.888-.474 1.914-.712 3.077-.712zm0 2.342c-.857 0-1.531.306-2.02.919-.475.597-.712 1.5-.712 2.71 0 1.209.237 2.12.712 2.732.489.597 1.163.895 2.02.895.842 0 1.5-.298 1.975-.895.49-.613.735-1.524.735-2.733 0-1.21-.245-2.112-.735-2.71-.475-.611-1.133-.918-1.975-.918zM123.419 10.691v12.973c0 .536.092.911.276 1.126.183.214.489.321.918.321.26 0 .475-.015.643-.046.168-.03.383-.092.643-.184l-.276 2.067c-.26.153-.589.268-.987.344a4.9 4.9 0 0 1-1.148.138c-1.118 0-1.937-.268-2.457-.803-.505-.552-.758-1.424-.758-2.618V10.69h3.146zM132.979 27.43c-1.807 0-3.253-.52-4.34-1.561-1.087-1.056-1.63-2.526-1.63-4.409 0-1.255.245-2.326.734-3.214a5.05 5.05 0 0 1 2.044-2.044c.888-.474 1.898-.712 3.031-.712 1.163 0 2.151.238 2.962.712a4.65 4.65 0 0 1 1.86 1.906c.428.796.643 1.707.643 2.732 0 .306-.008.597-.023.873-.016.275-.039.52-.069.735h-8.106c.123.887.429 1.553.919 1.997.505.429 1.156.643 1.952.643.673 0 1.217-.13 1.63-.39.413-.26.735-.62.964-1.08l2.503.965c-.367.903-1.01 1.607-1.929 2.112-.918.49-1.967.735-3.145.735zm-.184-9.62c-1.485 0-2.38.818-2.687 2.456h5.167c-.092-.796-.352-1.4-.781-1.814-.413-.428-.98-.643-1.699-.643zM145.541 27.43c-1.164 0-2.228-.206-3.192-.62-.949-.413-1.722-.995-2.319-1.745l1.814-1.837a4.318 4.318 0 0 0 1.469 1.355c.613.352 1.34.528 2.182.528.597 0 1.071-.084 1.423-.253.368-.183.551-.466.551-.85a.844.844 0 0 0-.252-.62c-.169-.183-.505-.328-1.01-.435l-2.021-.414c-1.332-.275-2.281-.689-2.847-1.24-.551-.566-.827-1.293-.827-2.18 0-.628.184-1.218.551-1.769.383-.55.949-.995 1.699-1.332.75-.352 1.684-.528 2.802-.528 2.326 0 3.995.712 5.005 2.136l-1.883 1.837a3.28 3.28 0 0 0-1.331-1.217 3.515 3.515 0 0 0-1.7-.437c-1.347 0-2.02.375-2.02 1.125 0 .245.107.46.321.643.215.169.605.314 1.171.437l2.342.482c1.133.23 1.944.62 2.434 1.17.49.537.735 1.187.735 1.953 0 1.102-.444 2.012-1.332 2.732-.872.72-2.127 1.08-3.765 1.08z" fill="#fff"/></svg>
